curriculum/images/exercise-icons/positive-negative-or-zero.svg

<svg width="82" height="82" viewBox="0 0 82 82" fill="none" xmlns="http://www.w3.org/2000/svg">
<path d="M1 41C1 51.6087 5.21427 61.7828 12.7157 69.2843C20.2172 76.7857 30.3913 81 41 81C51.6087 81 61.7828 76.7857 69.2843 69.2843C76.7857 61.7828 81 51.6087 81 41C81 30.3913 76.7857 20.2172 69.2843 12.7157C61.7828 5.21427 51.6087 1 41 1C30.3913 1 20.2172 5.21427 12.7157 12.7157C5.21427 20.2172 1 30.3913 1 41Z" fill="#DAEDF7" stroke="#DAEDF7"/>
<path opacity="0.15" d="M26.702 72.148C26.702 72.6283 28.2611 73.0889 31.0362 73.4286C33.8114 73.7682 37.5753 73.959 41.5 73.959C45.4247 73.959 49.1886 73.7682 51.9638 73.4286C54.7389 73.0889 56.298 72.6283 56.298 72.148C56.298 71.6677 54.7389 71.207 51.9638 70.8674C49.1886 70.5278 45.4247 70.337 41.5 70.337C37.5753 70.337 33.8114 70.5278 31.0362 70.8674C28.2611 71.207 26.702 71.6677 26.702 72.148Z" fill="#45413C"/>
<path d="M15.91 12.67H67.09V63.85H15.91V12.67Z" fill="white"/>
<path d="M29.0006 58C28.0474 57.9917 27.1057 57.7887 26.2323 57.4032C25.359 57.0177 24.5719 56.4577 23.9187 55.7569C23.2655 55.0561 22.7596 54.229 22.4315 53.3256C22.1034 52.4221 21.9599 51.4609 22.0096 50.5C22.0096 46.155 24.9502 43 29.0006 43C29.9537 43.0084 30.8952 43.2116 31.7685 43.5971C32.6417 43.9827 33.4286 44.5428 34.0817 45.2435C34.7348 45.9443 35.2406 46.7713 35.5686 47.6747C35.8967 48.5781 36.0401 49.5392 35.9904 50.5C35.9904 54.845 33.0509 58 29.0006 58ZM29.0006 46.9455C26.9742 46.9455 26.2471 48.8599 26.2471 50.5C26.2471 52.2183 26.9707 54.0557 29.0006 54.0557C31.0305 54.0557 31.7541 52.2183 31.7541 50.5C31.7541 48.8551 31.0329 46.9455 29.0006 46.9455Z" fill="#9F5AE5" stroke="#8F30EE" stroke-linecap="round" stroke-linejoin="round"/>
<path d="M53.4971 54C53.1112 53.9994 52.7414 53.8411 52.4687 53.5599C52.1959 53.2786 52.0425 52.8973 52.0421 52.4997V50.8369C52.0425 50.4393 52.1959 50.0581 52.4687 49.7769C52.7415 49.4958 53.1113 49.3377 53.4971 49.3373C54.0088 49.3373 54.509 49.1809 54.9344 48.8879C55.3599 48.5949 55.6915 48.1784 55.8873 47.6912C56.0831 47.2039 56.1344 46.6678 56.0346 46.1505C55.9347 45.6332 55.6883 45.1581 55.3265 44.7852C54.9647 44.4122 54.5037 44.1583 54.0018 44.0554C53.4999 43.9525 52.9797 44.0053 52.507 44.2071C52.0342 44.409 51.6302 44.7507 51.3459 45.1893C51.0616 45.6278 50.9099 46.1433 50.9099 46.6707C50.9099 46.8676 50.8722 47.0626 50.7991 47.2446C50.726 47.4265 50.6188 47.5918 50.4837 47.7311C50.3486 47.8703 50.1882 47.9808 50.0117 48.0561C49.8352 48.1315 49.646 48.1703 49.4549 48.1703C49.2639 48.1703 49.0747 48.1315 48.8982 48.0561C48.7216 47.9808 48.5612 47.8703 48.4261 47.7311C48.291 47.5918 48.1839 47.4265 48.1108 47.2446C48.0376 47.0626 48 46.8676 48 46.6707C47.9996 45.6139 48.2859 44.5781 48.8265 43.6801C49.3671 42.7821 50.1405 42.0577 51.0593 41.5887C51.9782 41.1198 53.0059 40.9249 54.0266 41.026C55.0472 41.1272 56.0201 41.5205 56.8354 42.1613C57.6507 42.8022 58.2759 43.6652 58.6405 44.653C59.0051 45.6407 59.0946 46.7138 58.8988 47.7512C58.703 48.7885 58.2298 49.7488 57.5325 50.5237C56.8352 51.2985 55.9417 51.857 54.9527 52.1361V52.5035C54.9512 52.9005 54.7972 53.2808 54.5244 53.5612C54.2517 53.8417 53.8823 53.9994 53.4971 54Z" fill="#00B8F0" stroke="#00658A" stroke-linecap="round" stroke-linejoin="round"/>
<path d="M51 57C51 57.5304 51.2634 58.0391 51.7322 58.4142C52.2011 58.7893 52.837 59 53.5 59C54.163 59 54.7989 58.7893 55.2678 58.4142C55.7366 58.0391 56 57.5304 56 57C56 56.4696 55.7366 55.9609 55.2678 55.5858C54.7989 55.2107 54.163 55 53.5 55C52.837 55 52.2011 55.2107 51.7322 55.5858C51.2634 55.9609 51 56.4696 51 57Z" fill="#00B8F0" stroke="#00658A" stroke-linecap="round" stroke-linejoin="round"/>
<path d="M61.84 59.424H21.16C19.7677 59.4237 18.4325 58.8705 17.448 57.886C16.4635 56.9015 15.9103 55.5663 15.91 54.174V58.6C15.91 59.9924 16.4631 61.3278 17.4477 62.3123C18.4323 63.2969 19.7676 63.85 21.16 63.85H61.84C63.2324 63.85 64.5677 63.2969 65.5523 62.3123C66.5369 61.3278 67.09 59.9924 67.09 58.6V54.174C67.0897 55.5663 66.5365 56.9015 65.552 57.886C64.5675 58.8705 63.2323 59.4237 61.84 59.424Z" fill="#F8F8F8"/>
<path d="M15.91 12.67H67.09V63.85H15.91V12.67Z" stroke="#45413C" stroke-linecap="round" stroke-linejoin="round"/>
<path d="M15.91 38.259H67.09" stroke="#45413C" stroke-linecap="round" stroke-linejoin="round"/>
<path d="M41.5 12.67V63.849" stroke="#45413C" stroke-linecap="round" stroke-linejoin="round"/>
<path d="M34.509 23.364H30.809V19.664C30.809 19.1071 30.5878 18.5729 30.1939 18.1791C29.8001 17.7853 29.266 17.564 28.709 17.564C28.152 17.564 27.6179 17.7853 27.2241 18.1791C26.8302 18.5729 26.609 19.1071 26.609 19.664V23.364H22.9C22.6242 23.364 22.3511 23.4183 22.0964 23.5239C21.8416 23.6294 21.6101 23.7841 21.4151 23.9791C21.2201 24.1741 21.0654 24.4056 20.9599 24.6604C20.8543 24.9152 20.8 25.1883 20.8 25.464C20.8 25.7398 20.8543 26.0129 20.9599 26.2677C21.0654 26.5224 21.2201 26.7539 21.4151 26.949C21.6101 27.144 21.8416 27.2986 22.0964 27.4042C22.3511 27.5097 22.6242 27.564 22.9 27.564H26.605V31.264C26.605 31.821 26.8263 32.3551 27.2201 32.749C27.6139 33.1428 28.148 33.364 28.705 33.364C29.262 33.364 29.7961 33.1428 30.1899 32.749C30.5838 32.3551 30.805 31.821 30.805 31.264V27.564H34.505C35.062 27.564 35.5961 27.3428 35.9899 26.949C36.3838 26.5551 36.605 26.021 36.605 25.464C36.605 24.9071 36.3838 24.3729 35.9899 23.9791C35.5961 23.5853 35.062 23.364 34.505 23.364H34.509Z" fill="#6DD627" stroke="#46B000" stroke-linecap="round" stroke-linejoin="round"/>
<path d="M60.1 27.564H48.491C47.934 27.564 47.3999 27.3428 47.0061 26.9489C46.6123 26.5551 46.391 26.021 46.391 25.464C46.391 24.9071 46.6123 24.3729 47.0061 23.9791C47.3999 23.5853 47.934 23.364 48.491 23.364H60.1C60.657 23.364 61.1911 23.5853 61.5849 23.9791C61.9787 24.3729 62.2 24.9071 62.2 25.464C62.2 26.021 61.9787 26.5551 61.5849 26.9489C61.1911 27.3428 60.657 27.564 60.1 27.564Z" fill="#FF6242" stroke="#E04122" stroke-linecap="round" stroke-linejoin="round"/>
</svg>

<svg xmlns="http://www.w3.org/2000/svg" width="82" height="82" fill="none" viewBox="0 0 82 82"><path fill="#daedf7" stroke="#daedf7" d="M1 41a40 40 0 1 0 80 0 40 40 0 0 0-80 0Z"/><path fill="#45413c" d="M26.702 72.148c0 .48 1.56.94 4.334 1.28 2.775.34 6.54.531 10.464.531s7.689-.19 10.464-.53 4.334-.8 4.334-1.281-1.56-.941-4.334-1.28c-2.775-.34-6.54-.531-10.464-.531s-7.689.19-10.464.53-4.334.8-4.334 1.281" opacity=".15"/><path fill="#fff" d="M15.91 12.67h51.18v51.18H15.91z"/><path fill="#9f5ae5" stroke="#8f30ee" stroke-linecap="round" stroke-linejoin="round" d="M29 58a7 7 0 0 1-2.768-.597 7.1 7.1 0 0 1-2.313-1.646 7.1 7.1 0 0 1-1.488-2.431 7.2 7.2 0 0 1-.421-2.826c0-4.345 2.94-7.5 6.99-7.5a7 7 0 0 1 2.768.597c.874.386 1.66.946 2.314 1.646a7.1 7.1 0 0 1 1.487 2.432 7.2 7.2 0 0 1 .421 2.825c0 4.345-2.94 7.5-6.99 7.5m0-11.054c-2.026 0-2.753 1.914-2.753 3.554 0 1.718.724 3.556 2.754 3.556s2.753-1.838 2.753-3.556c0-1.645-.721-3.554-2.753-3.554"/><path fill="#00b8f0" stroke="#00658a" stroke-linecap="round" stroke-linejoin="round" d="M53.497 54c-.386 0-.756-.159-1.028-.44a1.53 1.53 0 0 1-.427-1.06v-1.663c0-.398.154-.779.427-1.06s.642-.44 1.028-.44c.512 0 1.012-.156 1.437-.45a2.65 2.65 0 0 0 .953-1.196 2.74 2.74 0 0 0 .148-1.54 2.7 2.7 0 0 0-.708-1.366 2.56 2.56 0 0 0-1.325-.73 2.5 2.5 0 0 0-1.495.152 2.6 2.6 0 0 0-1.161.982 2.73 2.73 0 0 0-.436 1.482 1.54 1.54 0 0 1-.426 1.06c-.135.14-.296.25-.472.325a1.42 1.42 0 0 1-1.586-.325 1.539 1.539 0 0 1-.426-1.06c0-1.057.286-2.093.827-2.99a5.57 5.57 0 0 1 2.232-2.092 5.36 5.36 0 0 1 5.776.572 5.66 5.66 0 0 1 1.806 2.492c.364.988.454 2.06.258 3.098a5.73 5.73 0 0 1-1.367 2.773 5.47 5.47 0 0 1-2.58 1.612v.367a1.53 1.53 0 0 1-.428 1.058c-.272.28-.642.438-1.027.439M51 57c0 .53.263 1.04.732 1.414.47.375 1.105.586 1.768.586s1.299-.21 1.768-.586C55.737 58.04 56 57.53 56 57s-.263-1.04-.732-1.414C54.798 55.21 54.163 55 53.5 55s-1.299.21-1.768.586C51.263 55.96 51 56.47 51 57"/><path fill="#f8f8f8" d="M61.84 59.424H21.16a5.25 5.25 0 0 1-5.25-5.25V58.6a5.25 5.25 0 0 0 5.25 5.25h40.68a5.25 5.25 0 0 0 5.25-5.25v-4.426a5.25 5.25 0 0 1-5.25 5.25"/><path stroke="#45413c" stroke-linecap="round" stroke-linejoin="round" d="M15.91 12.67h51.18v51.18H15.91zM15.91 38.259h51.18M41.5 12.67v51.179"/><path fill="#6dd627" stroke="#46b000" stroke-linecap="round" stroke-linejoin="round" d="M34.509 23.364h-3.7v-3.7a2.1 2.1 0 1 0-4.2 0v3.7H22.9a2.098 2.098 0 0 0-1.94 2.904 2.1 2.1 0 0 0 1.94 1.296h3.705v3.7a2.1 2.1 0 0 0 4.2 0v-3.7h3.7a2.1 2.1 0 1 0 0-4.2z"/><path fill="#ff6242" stroke="#e04122" stroke-linecap="round" stroke-linejoin="round" d="M60.1 27.564H48.491a2.1 2.1 0 1 1 0-4.2H60.1a2.1 2.1 0 0 1 0 4.2"/></svg>
